X:12
T:Swinley Camp. Pn1801.12
Q:1/4=80
M:2/4
L:1/8
C:"452"
W:1st Cu: set to 2d Lady and hands 3 round .| set to the 2d Gent and hands 3 round :|
W:lead down the middle, up again & turn your Partner :||:
B:Preston 24 for 1801
Z:Village Music Project, John Adams, 2017
K:F
c|A>Fc>A|f>gf>c|(d/c/).B/.A/ (B/A/).G/.F/|E/F/G/A/ Gc/B/|A>Fc>A|f>gfc|d/c/B/A/  GA|F3:|
|:c|{fg}a>gfd|cAAB|c>Af>A|G3A|BABc|dcde|{fg}a>f{ef}g>e|f3:|
